!!!COM: Aaron Copland
!!!OTL: [T711_Cop-w25p3m42-49]
**kern	**kern	**dynam	**kern	**dynam
*grp:A	*grp:A	*	*grp:B	*
*part2	*part2	*part2	*part1	*
*staff3	*staff2	*	*staff1	*
*I"Piano	*	*	*I"Violin	*
*I'Pno.	*	*	*I'Vln.	*
*clefG2	*clefG2	*	*clefG2	*
*k[]	*k[]	*	*k[]	*
*C:	*C:	*	*C:	*
*M4/4	*M4/4	*	*M4/4	*
=1	=1	=1	=1	=1
!	!	!LO:DY:t=[ %s ]	!LO:TX:t=[[half]=84]	!LO:DY:t=[ %s ]
8c	4r	4ryy	4ryy	4ryy
4f	.	.	.	.
.	(4dd	4ryy	4ryy	.
8f	.	.	.	.
2b-X)j	8ggL	.	2ryy	.
.	8bbnZJ	.	.	.
.	8ggL	.	.	.
.	8bbJ	.	.	.
=2	=2	=2	=2	=2
(8dL	2aa)	.	4ryy	.
8bnZJ	.	.	.	.
8gL	.	.	4ryy	.
8eJ	.	.	.	.
8c	(2ccc	.	2ryy	.
4f	.	.	.	.
8f	.	.	.	.
=3	=3	=3	=3	=3
2b-X)	8bbnZL	.	2ryy	.
.	8ggJ	.	.	.
.	8bbL	.	.	.
.	8ggJ	.	.	.
(8dL	2ee)	.	4ryy	.
8bnJ	.	.	.	.
8gL	.	.	4ryy	.
8eJ	.	.	.	.
=4	=4	=4	=4	=4
8c	(2dd	.	2ryy	.
4f	.	.	.	.
8f	.	.	.	.
2b-X)	8ggL	.	4ryy	.
.	8bbnZJ	.	.	.
.	8ggL	.	4ryy	.
.	8bbJ	.	.	.
!!linebreak:original
=5	=5	=5	=5	=5
(8dL	2ddd)	.	2ryy	.
8bnZJ	.	.	.	.
8gL	.	.	.	.
8eJ	.	.	.	.
8c	(2fff#X	.	4ryy	.
4f	.	.	.	.
.	.	.	4ryy	.
8f	.	.	.	.
=6	=6	=6	=6	=6
2b-X)	4eee	.	4ryy	.
.	4ddd	.	4ryy	.
(8dL	4ccc#X	.	4ryy	.
8bnJ	.	.	.	.
8gL	4bb)	.	4ryy	.
8eJ	.	.	.	.
=7	=7	=7	=7	=7
8c	2aa	.	2ryy	.
4f	.	.	.	.
8f	.	.	.	.
2b-X)	(8ggL	.	2ryy	.
.	8bbnZJ	.	.	.
.	8ggL	.	.	.
.	8bbJ	.	.	.
=8	=8	=8	=8	=8
(8dLi	2aa)	.	4ryy	.
8bnJ	.	.	.	.
8gL	.	.	4ryy	.
8eJ	.	.	.	.
8c	(4bbi	.	2ryy	.
4f	.	.	.	.
.	4ddd	.	.	.
8f	.	.	.	.
=	=	=	=	=
*-	*-	*-	*-	*-
!!!system-decoration: s1[({(s2,s3)})]
!!!RDF**kern: Z = editorial accidental, parentheses
!!!RDF**kern: i = marked note, color="hotpink", text="extra("
!!!RDF**kern: j = marked note, color="magenta", text="extra)"
!!!EED:Jason Lee
!!!EEV:2021/12/13
